X: 1
T: Macpherson's Rant
R: barndance
M: 4/4
L: 1/8
K: Dmix
|:D2|G3 A B2 AG|B2 A2 A2 DE|G3 A B2 AG|E6 DE|!
G3 A B2 AG|B2 A2 A2 DE|G3 B AG E2|D6:|!
|:Bd|d3 B cBAG|B2 A2 A2 Bd|d3 B cBAG|E6 e2|!
d3 B cBAG|B2 A2 A2 DE|G3 B AG E2|D6:|!


Tune 3053	Setting 16197

